X: 1
T: Sliabh Carberry
R: reel
M: 4/4
L: 1/8
K: Ador
eaag efg2|eaag edcd|eaag egfa|gedB GA (3B^cd|
eaag efg2|a^c'ag eAd2|eaag egfa|gedB GABd||
ea~a2 agag|eaag edcd|ea~a2 agaf|(3gfe dB GABd|
ea~a2 agag|eaag edBA|(3B^cd ef g2af|gedB GA (3B^cd||

